X:1180
T:The Milliner's Daughter
M:C|
L:1/8
R:Reel
B:O'Neill's 1180
N:collected by F. O'Neill
Z:Transcribed be Trish O'Neil, oneil@cybernw.com
K:G
G2BG DGBG|A2eg fdcA|G2BG DGBd|cAFG AG"End"G2 :|
|dg a3gfg dg a3gfg|df g3fef df g3fef|dg a3gfg dg a3gfg|dcde fdcA|
|dg a3gfg bgaf|dcde fefg|afge fdec|dcde fdcA|]
